img/cursor.svg

<svg width="38" height="38" viewBox="0 0 38 38" fill="none" xmlns="http://www.w3.org/2000/svg">
<path d="M5.89289 18.0735C0.364509 10.8441 0.36451 5.55116 0.36451 5.55116C3.82734 8.51279 7.29017 11.4744 10.9049 14.2462C12.6515 15.5903 14.4361 16.8889 16.2662 18.1191C18.6431 19.7062 36.8153 32.8893 36.8153 32.8893H30.2162C30.2162 32.8893 23.002 27.2014 22.7058 27.0116C21.7034 26.3813 20.3745 25.3257 19.1063 25.5308C17.542 25.7814 16.9876 27.3685 16.6307 28.6671C16.6307 28.6671 9.26459 22.4628 5.89289 18.0735V18.0735Z" fill="black" stroke="#FBF6C1" stroke-width="0.719424" stroke-miterlimit="10"/>
</svg>

<svg width="38" height="38" fill="none" xmlns="http://www.w3.org/2000/svg"><path d="M5.893 18.073C.365 10.845.365 5.551.365 5.551c3.462 2.962 6.925 5.923 10.54 8.695a103.273 103.273 0 0 0 5.361 3.873c2.377 1.587 20.55 14.77 20.55 14.77h-6.6s-7.214-5.688-7.51-5.877c-1.003-.63-2.331-1.686-3.6-1.481-1.564.25-2.118 1.838-2.475 3.136 0 0-7.366-6.204-10.738-10.594Z" fill="#000" stroke="#FBF6C1" stroke-width=".719" stroke-miterlimit="10"/></svg>
